startshape SHAPE1
CF::Background = [b -1]
//CF::MinimumSize = 4

shape SHAPE1 {
  SHAPE2 []
}

shape SHAPE2 {
 loop 20 [y 5] 
	loop 20 [x 5] 
		SQUARE [ s rand(40) b 0.9..1 sat 0.5..1.3 hue 20..50 a -0.9]
		SQUARE [ s rand(40) b 0.9..1 sat 0.5..1.3 hue 20..50 a -0.9]
}
